X: 122
T: A Red, Red Rose
C: W : Robert Burns
M: 4/4
L: 1/8
K: D
uA |: "D" vD<uD "A" (vE>F) "Bm" (ud>c) ({B/c/}"G"vB)uA | "Em" (vB>A "G" B)ud "Em" (ve>d) "A7" (ue<f) |
"D" vD<uD "A" (vE>F) "Bm" (ud>c) "G" vBA | "Em" ({B/c/})(vB>A "A7" B)uc "D" vd2 (udA) :|
|: "D" (vd<f) ({e/f/})"A7"(ue>d) "G" (vB<d) "D" (uA>F) | vA<uA "G" (vg>f) "Em" ue2 ({e/}"A7"va)>g |
 "D" (vf<a) "F#m" (uf>d) "G" (vB<d) "D" (uA>F) | vA<uA ({B/c/})"A7"(vB>c) "D" ud2 "D" !fermata!vduA :|
W: From p. 40, _Fiddlers Philharmonic Encore!_

%% transpose 0

